img/icons/ok.svg

<svg width="32" height="32" viewBox="-2 -2 32 32" fill="none" xmlns="http://www.w3.org/2000/svg">
<path d="M13.1608 0.134699C12.7708 0.274727 12.6207 0.374746 12.1606 0.784822C11.6505 1.24491 11.4705 1.735 11.3305 3.09526C11.1604 4.66556 11.0004 5.27568 10.4803 6.31588C9.94021 7.40608 8.95002 8.38627 7.80981 8.97638L7.01966 9.39646L6.47955 9.09641L5.93945 8.79635H3.90906C2.06871 8.79635 1.83867 8.81635 1.4886 8.99639C0.978507 9.25644 0.478412 9.75653 0.228364 10.2566C0.04833 10.6267 0.0383281 10.9568 0.00832242 18.2782C-0.0116814 25.8696 -0.0116814 25.9096 0.198359 26.3997C0.438404 26.9598 1.09853 27.6199 1.64863 27.85C1.92869 27.97 2.42878 28 3.92907 28C5.71941 28 5.86944 27.98 6.33953 27.76C6.80962 27.5499 7.40973 26.9898 7.50975 26.6797C7.55976 26.5397 7.51975 26.5297 10.8904 27.2999C13.7609 27.95 14.5111 28.02 18.8419 27.98L22.6426 27.95L23.2227 27.6599C23.9329 27.2999 24.3229 26.8698 24.733 25.9996C24.9831 25.4795 25.0431 25.2095 25.0531 24.5994C25.0731 23.8692 25.0831 23.8392 25.4732 23.4291C25.7032 23.1991 26.0133 22.689 26.2033 22.2289C26.5234 21.4988 26.5434 21.3787 26.5534 20.2885C26.5534 19.1683 26.5634 19.1283 26.8734 18.6882C27.5736 17.668 27.8136 16.1377 27.4435 15.1676C27.2835 14.7475 27.2835 14.6775 27.4135 14.5174C27.8036 14.0774 27.9236 13.6473 27.9736 12.5871C28.0137 11.5369 28.0137 11.5169 27.6936 10.9067C27.2935 10.1666 26.8634 9.76653 26.0433 9.38646C25.2531 9.01639 24.333 8.91637 20.9123 8.82635L18.1818 8.76634L18.2518 8.10622C18.3818 6.84598 18.3318 5.08564 18.1418 4.3555C17.3916 1.42495 15.0712 -0.545429 13.1608 0.134699ZM14.8411 2.15508C16.5015 3.42533 17.0216 6.26587 16.1314 9.25644C15.9814 9.74653 15.8413 10.2366 15.8213 10.3466C15.7813 10.5467 15.8413 10.5467 19.7121 10.5767C21.8725 10.5867 23.9729 10.6467 24.383 10.6967C25.2531 10.8167 25.8832 11.1268 26.0833 11.5469C26.2733 11.9369 26.2433 13.0572 26.0433 13.3672C25.7132 13.8673 25.4532 13.9473 23.9129 13.9773C22.5126 14.0173 22.4726 14.0173 22.3726 14.2574C22.2826 14.4474 22.2926 14.5374 22.4426 14.6975C22.6026 14.8775 22.7526 14.8975 23.7728 14.8975C25.0131 14.8975 25.4332 15.0375 25.6632 15.5176C26.1033 16.4178 25.6432 17.8081 24.763 18.2081C24.413 18.3582 24.1029 18.3982 22.9627 18.3982C21.5924 18.3982 21.5924 18.3982 21.4724 18.6482C21.3824 18.8583 21.3924 18.9283 21.5424 19.0983C21.7024 19.2783 21.8525 19.2983 22.9527 19.2983C24.1129 19.2983 24.1929 19.3083 24.473 19.5484C24.8731 19.8885 24.9431 20.2685 24.743 20.9687C24.3029 22.4689 23.9329 22.709 21.9425 22.799L20.6422 22.849V23.1991V23.5492L21.6424 23.5992C22.6726 23.6492 23.0127 23.7592 23.1927 24.0993C23.4428 24.5693 23.1327 25.5495 22.6126 25.9496C22.3526 26.1396 22.1825 26.1496 18.2918 26.1496C13.7309 26.1496 13.7709 26.1496 9.84019 25.2395C7.81981 24.7694 7.2297 24.5693 7.07967 24.2893C6.92964 23.9992 6.95965 11.8069 7.11968 11.4969C7.19969 11.3268 7.57976 11.0768 8.24989 10.7467C9.51013 10.1166 10.1202 9.66651 10.9404 8.76634C12.0506 7.54611 13.0808 5.06564 13.0908 3.55535C13.1108 1.86503 13.7609 1.33493 14.8411 2.15508ZM5.79942 10.7867L6.08948 11.0768V18.4082V25.7396L5.86944 25.9696C5.6594 26.1897 5.59939 26.1997 3.94907 26.1997C2.34877 26.1997 2.23875 26.1897 2.0187 25.9796L1.78866 25.7696V18.4482C1.78866 10.5167 1.76866 10.8167 2.32876 10.5967C2.43878 10.5467 3.20893 10.5067 4.01909 10.5067L5.50937 10.4967L5.79942 10.7867Z" fill="#0095BF"/>
</svg>

<svg xmlns="http://www.w3.org/2000/svg" fill="none" viewBox="-2 -2 32 32"><path fill="#0095bf" d="M13.16.135c-.39.14-.54.24-1 .65-.51.46-.69.95-.83 2.31-.17 1.57-.33 2.18-.85 3.22-.54 1.091-1.53 2.071-2.67 2.661l-.79.42-.54-.3-.54-.3H3.91c-1.841 0-2.071.02-2.421.2-.51.26-1.01.76-1.26 1.26-.18.37-.19.7-.22 8.022-.02 7.592-.02 7.632.19 8.122.24.56.9 1.22 1.45 1.45.28.12.78.15 2.28.15 1.79 0 1.94-.02 2.41-.24.47-.21 1.07-.77 1.17-1.08.05-.14.01-.15 3.381.62 2.87.65 3.621.72 7.952.68l3.8-.03.58-.29c.71-.36 1.1-.79 1.511-1.66.25-.52.31-.79.32-1.4.02-.73.03-.76.42-1.17.23-.23.54-.741.73-1.201.32-.73.34-.85.35-1.94 0-1.12.01-1.16.32-1.6.7-1.021.94-2.551.57-3.521-.16-.42-.16-.49-.03-.65.39-.44.51-.87.56-1.93.04-1.051.04-1.071-.28-1.681-.4-.74-.83-1.14-1.65-1.52-.79-.37-1.71-.47-5.13-.56l-2.731-.06.07-.66c.13-1.261.08-3.021-.11-3.751-.75-2.931-3.07-4.901-4.981-4.221m1.681 2.02c1.66 1.27 2.18 4.11 1.29 7.101-.15.49-.29.98-.31 1.09-.04.2.02.2 3.891.23 2.16.01 4.26.07 4.671.12.87.12 1.5.43 1.7.85.19.39.16 1.511-.04 1.821-.33.5-.59.58-2.13.61-1.4.04-1.44.04-1.54.28-.09.19-.08.28.07.44.16.18.31.2 1.33.2 1.24 0 1.66.14 1.89.62.44.9-.02 2.291-.9 2.691-.35.15-.66.19-1.8.19-1.37 0-1.37 0-1.49.25-.09.21-.08.28.07.45.16.18.31.2 1.41.2 1.16 0 1.24.01 1.52.25.4.34.47.72.27 1.42-.44 1.5-.81 1.741-2.8 1.831l-1.3.05v.7l1 .05c1.03.05 1.37.16 1.55.5.25.47-.06 1.45-.58 1.85-.26.19-.43.2-4.321.2-4.561 0-4.521 0-8.452-.91-2.02-.47-2.61-.67-2.76-.95-.15-.29-.12-12.482.04-12.792.08-.17.46-.42 1.13-.75 1.26-.63 1.87-1.08 2.69-1.98 1.11-1.22 2.14-3.701 2.15-5.212.02-1.69.67-2.22 1.751-1.4M5.8 10.787l.29.29V25.74l-.22.23c-.21.22-.27.23-1.92.23-1.6 0-1.71-.01-1.93-.22l-.23-.21v-7.322c0-7.931-.02-7.631.54-7.851.11-.05.88-.09 1.69-.09l1.49-.01z"/></svg>
